assets/svg/currencies/commodity/GOLD.svg

<svg width="300" height="300" viewBox="0 0 300 300" fill="none" xmlns="http://www.w3.org/2000/svg">
<path d="M150 300C232.843 300 300 232.843 300 150C300 67.1573 232.843 0 150 0C67.1573 0 0 67.1573 0 150C0 232.843 67.1573 300 150 300Z" fill="#F4C14D"/>
<path d="M45 149.5C45 143.789 46.1142 138.799 48.3426 134.529C50.571 130.206 53.7545 126.871 57.893 124.522C62.0845 122.174 66.9923 121 72.6164 121C77.0202 121 80.973 121.854 84.4748 123.562C87.9765 125.27 90.7886 127.671 92.9109 130.767C95.0863 133.862 96.4127 137.412 96.8902 141.414H85.1114C84.3686 138.265 82.883 135.784 80.6546 133.969C78.4262 132.101 75.6407 131.167 72.2981 131.167C69.2207 131.167 66.5413 131.941 64.2599 133.489C61.9784 135.037 60.2275 137.198 59.0072 139.973C57.7868 142.749 57.1767 145.924 57.1767 149.5C57.1767 154.997 58.5031 159.427 61.156 162.789C63.8619 166.152 67.576 167.833 72.2981 167.833C75.7468 167.833 78.7976 166.899 81.4505 165.031C84.1034 163.11 85.6951 160.308 86.2257 156.625V155.904H72.3777V146.378H97.2881L97.2881 177.52H89.0112L87.7378 170.555C86.093 172.743 83.8911 174.531 81.1321 175.919C78.3731 177.306 75.1632 178 71.5022 178C66.2495 178 61.607 176.826 57.5746 174.478C53.5953 172.129 50.4914 168.794 48.263 164.471C46.0877 160.147 45 155.157 45 149.5Z" fill="white"/>
<path d="M159.845 149.5C159.845 154.89 158.677 159.774 156.343 164.15C154.008 168.473 150.745 171.862 146.554 174.317C142.362 176.772 137.587 178 132.228 178C126.87 178 122.094 176.772 117.903 174.317C113.711 171.862 110.448 168.473 108.114 164.15C105.779 159.774 104.612 154.89 104.612 149.5C104.612 144.11 105.779 139.253 108.114 134.93C110.448 130.553 113.711 127.138 117.903 124.683C122.094 122.228 126.87 121 132.228 121C137.587 121 142.362 122.228 146.554 124.683C150.745 127.138 154.008 130.553 156.343 134.93C158.677 139.253 159.845 144.11 159.845 149.5ZM116.789 149.5C116.789 153.022 117.425 156.171 118.699 158.947C119.972 161.722 121.776 163.91 124.111 165.511C126.445 167.059 129.151 167.833 132.228 167.833C135.253 167.833 137.932 167.059 140.267 165.511C142.601 163.91 144.405 161.722 145.678 158.947C146.952 156.171 147.588 153.022 147.588 149.5C147.588 145.978 146.952 142.829 145.678 140.053C144.405 137.278 142.601 135.117 140.267 133.569C137.932 131.968 135.253 131.167 132.228 131.167C129.151 131.167 126.445 131.968 124.111 133.569C121.776 135.117 119.972 137.278 118.699 140.053C117.425 142.829 116.789 145.978 116.789 149.5Z" fill="white"/>
<path d="M167.074 177.52V121.48H179.012V167.192H201.137V177.52H167.074Z" fill="white"/>
<path d="M207.567 121.48L226.906 121.48C232.477 121.48 237.385 122.681 241.63 125.083C245.927 127.431 249.217 130.74 251.498 135.01C253.833 139.226 255 144.056 255 149.5C255 154.944 253.833 159.801 251.498 164.07C249.217 168.287 245.927 171.596 241.63 173.997C237.385 176.346 232.477 177.52 226.906 177.52H207.567V121.48ZM226.906 167.513C231.947 167.513 235.846 165.885 238.605 162.629C241.417 159.32 242.823 154.944 242.823 149.5C242.823 144.056 241.417 139.706 238.605 136.451C235.846 133.142 231.947 131.487 226.906 131.487H219.505V167.513H226.906Z" fill="white"/>
</svg>

<svg viewBox="0 0 300 300" fill="none" xmlns="http://www.w3.org/2000/svg">
    <path d="M150 300c82.843 0 150-67.157 150-150S232.843 0 150 0 0 67.157 0 150s67.157 150 150 150z" fill="#F4C14D"/>
    <path d="M45 149.5c0-5.711 1.114-10.701 3.343-14.971 2.228-4.323 5.411-7.658 9.55-10.007 4.191-2.348 9.1-3.522 14.723-3.522 4.404 0 8.357.854 11.859 2.562 3.502 1.708 6.314 4.109 8.436 7.205 2.175 3.095 3.502 6.645 3.98 10.647H85.11c-.742-3.149-2.228-5.63-4.456-7.445-2.229-1.868-5.014-2.802-8.357-2.802-3.077 0-5.757.774-8.038 2.322-2.282 1.548-4.033 3.709-5.253 6.484-1.22 2.776-1.83 5.951-1.83 9.527 0 5.497 1.326 9.927 3.979 13.289 2.706 3.363 6.42 5.044 11.142 5.044 3.449 0 6.5-.934 9.153-2.802 2.652-1.921 4.244-4.723 4.775-8.406v-.721H72.378v-9.526h24.91v31.142h-8.277l-1.273-6.965c-1.645 2.188-3.847 3.976-6.606 5.364-2.759 1.387-5.969 2.081-9.63 2.081-5.252 0-9.895-1.174-13.927-3.522-3.98-2.349-7.084-5.684-9.312-10.007C46.088 160.147 45 155.157 45 149.5zm114.845 0c0 5.39-1.168 10.274-3.502 14.65-2.335 4.323-5.598 7.712-9.789 10.167-4.192 2.455-8.967 3.683-14.326 3.683-5.358 0-10.134-1.228-14.325-3.683-4.192-2.455-7.455-5.844-9.789-10.167-2.335-4.376-3.502-9.26-3.502-14.65 0-5.39 1.167-10.247 3.502-14.57 2.334-4.377 5.597-7.792 9.789-10.247 4.191-2.455 8.967-3.683 14.325-3.683 5.359 0 10.134 1.228 14.326 3.683 4.191 2.455 7.454 5.87 9.789 10.247 2.334 4.323 3.502 9.18 3.502 14.57zm-43.056 0c0 3.522.636 6.671 1.91 9.447 1.273 2.775 3.077 4.963 5.412 6.564 2.334 1.548 5.04 2.322 8.117 2.322 3.025 0 5.704-.774 8.039-2.322 2.334-1.601 4.138-3.789 5.411-6.564 1.274-2.776 1.91-5.925 1.91-9.447 0-3.522-.636-6.671-1.91-9.447-1.273-2.775-3.077-4.936-5.411-6.484-2.335-1.601-5.014-2.402-8.039-2.402-3.077 0-5.783.801-8.117 2.402-2.335 1.548-4.139 3.709-5.412 6.484-1.274 2.776-1.91 5.925-1.91 9.447zm50.285 28.02v-56.04h11.938v45.712h22.125v10.328h-34.063zm40.493-56.04h19.339c5.571 0 10.479 1.201 14.724 3.603 4.297 2.348 7.587 5.657 9.868 9.927 2.335 4.216 3.502 9.046 3.502 14.49 0 5.444-1.167 10.301-3.502 14.57-2.281 4.217-5.571 7.526-9.868 9.927-4.245 2.349-9.153 3.523-14.724 3.523h-19.339v-56.04zm19.339 46.033c5.041 0 8.94-1.628 11.699-4.884 2.812-3.309 4.218-7.685 4.218-13.129s-1.406-9.794-4.218-13.049c-2.759-3.309-6.658-4.964-11.699-4.964h-7.401v36.026h7.401z" fill="#fff"/>
</svg>
